config.ocio
ocio_profile_version: 1
search_path: transforms:looks
strictparsing: true
luma: [0.2126, 0.7152, 0.0722]

description: ARRI REVEAL for OCIO v1.2

roles:
  color_picking: linear
  color_timing: logc4_arriwg4
  compositing_log: logc4_arriwg4
  data: non-colour data
  default: linear
  matte_paint: cineonlog_rec709
  rendering: linear  
  scene_linear: linear
  texture_paint: linear
  mari_monitor: rec709_display
  mari_scalar_monitor: rec709_display
  mari_color_picker: rec709_display
  mari_working: linear
  mari_int8: srgb_texture
  mari_int16: srgb_texture
  mari_int_scalar: non-colour data
  mari_scalar8: non-colour data
  mari_float: linear
  reference: lin_xyz
  srgb_linear: linear  
  substance_3d_painter_standard_srgb: srgb_texture
  substance_3d_painter_bitmap_import_8bit: srgb_texture
  substance_3d_painter_bitmap_import_16bit: srgb_texture
  substance_3d_painter_bitmap_import_floating: linear
  substance_3d_painter_substance_material: srgb_texture
  substance_3d_painter_bitmap_export_8bit: srgb_texture
  substance_3d_painter_bitmap_export_16bit: srgb_texture
  substance_3d_painter_bitmap_export_floating: linear 

displays:
  Rec1886 100 nits video dim:
    - !<View> {name: ARRI REVEAL, colorspace: ARRI REVEAL - Rec.709 - 2.4 Gamma}
    - !<View> {name: Display Encoding, colorspace: rec709_display}               
    - !<View> {name: Log, colorspace: cineonlog_rec709}
    - !<View> {name: None, colorspace: non-colour data}

active_displays: [Rec1886 100 nits Video dim]
active_views: [ARRI REVEAL, Display Encoding, Log, None]

##################################### SCENE-REFERRED ##############################################

colorspaces:
  - !<ColorSpace>
    name: linear
    family: SceneReferred    
    bitdepth: 32f
    description: Linear - Rec.709 - D65
    to_reference: !<MatrixTransform> {matrix: [0.4338873, 0.3762240, 0.1898886, 0, 0.2126390, 0.7151687, 0.0721923, 0, 0.0177500, 0.1094476, 0.8728023, 0, 0, 0, 0, 1]}
    allocation: lg2
    allocationvars: [-10, 7, 0.0056065625]

  - !<ColorSpace>
    name: cineonlog_rec709
    family: SceneReferred    
    bitdepth: 32f    
    description: Cineon Log - Rec.709 - D65
    to_reference: !<GroupTransform>
      children:
        - !<FileTransform> {src: CineonLog_2_Linear.spi1d, interpolation: linear}
        - !<MatrixTransform> {matrix: [0.4338873, 0.3762240, 0.1898886, 0, 0.2126390, 0.7151687, 0.0721923, 0, 0.0177500, 0.1094476, 0.8728023, 0, 0, 0, 0, 1]}
   
  - !<ColorSpace>
    name: logc4_arriwg4
    family: SceneReferred    
    bitdepth: 32f    
    description: ARRI - LogC4 - ARRI Wide Gamut 4 - D65
    to_reference: !<GroupTransform>
      children:
        - !<FileTransform> {src: oetf_arri_logc4_to_linear.spi1d, interpolation: linear}
        - !<MatrixTransform> {matrix: [0.7416002156, 0.1365242633, 0.1218755212, 0.0000000000, 0.2545241764, 0.7814777327, -0.0360019091, 0.0000000000, 0.0000000000, 0.0000000000, 1.0000000000, 0.0000000000, 0.0000000000, 0.0000000000, 0.0000000000, 1.0000000000]}

  - !<ColorSpace>
    name: lin_xyz
    family: SceneReferred    
    bitdepth: 32f
    description: CIE - Linear - XYZ - E
    allocation: lg2
    allocationvars: [-10, 7, 0.0056065625]

  - !<ColorSpace>
    name: aces
    family: SceneReferred    
    bitdepth: 32f
    description: ACES 2065-1 - Linear - AP0 - ACES White Point (~D60)
    to_reference: !<MatrixTransform> {matrix: [0.9999017, 0.0000000, 0.0000983, 0, 0.3439664, 0.7281661, -0.0721325, 0, 0.0000000, 0.0000000, 1.0000000, 0, 0, 0, 0, 1]}
    allocation: lg2
    allocationvars: [-10, 7, 0.0056065625]  

  - !<ColorSpace>
    name: acescg
    family: SceneReferred    
    bitdepth: 32f
    description: ACEScg - Linear - AP1 - ACES White Point (~D60)
    to_reference: !<MatrixTransform> {matrix: [0.6953833105, 0.1406652586, 0.1639514308, 0, 0.2722287168, 0.6740817658, 0.0536895174, 0, -0.0055258826, 0.0040252103, 1.0015006723, 0, 0, 0, 0, 1]}
    allocation: lg2
    allocationvars: [-10, 7, 0.0056065625]

##################################### DISPLAY-REFERRED ##############################################

  - !<ColorSpace>
    name: ARRI REVEAL - Rec.709 - 2.4 Gamma
    family: DisplayReferred
    bitdepth: 32f
    description: The new ARRI Alexa35 workflow - Please note that the inverse is NOT an official ARRI LUT
    from_reference: !<GroupTransform>
      children:
        - !<ColorSpaceTransform> {src: lin_xyz, dst: logc4_arriwg4}
        - !<FileTransform> {src: ARRI_LogC4-to-Gamma24_Rec709-D65_v1-65.cube, interpolation: tetrahedral}
    to_reference: !<GroupTransform>
      children:
        - !<FileTransform> {src: CB_inverted_LogC4-to-Gamma24_Rec709-D65_v1-65.cube, interpolation: tetrahedral}
        - !<ColorSpaceTransform> {src: logc4_arriwg4, dst: lin_xyz}           

############################################## UTILITY ##############################################         

  - !<ColorSpace>
    name: non-colour data
    family: Utility
    bitdepth: 32f
    description: No operation
    isdata: true
    allocation: uniform
    allocationvars: [0, 1]             

  - !<ColorSpace>
    name: srgb_texture
    family: Utility
    bitdepth: 32f
    description: sRGB Piecewise Function - Rec.709 - D65
    from_reference: !<GroupTransform>
      children:
        - !<MatrixTransform> {matrix: [0.4338873, 0.3762240, 0.1898886, 0, 0.2126390, 0.7151687, 0.0721923, 0, 0.0177500, 0.1094476, 0.8728023, 0, 0, 0, 0, 1], direction: inverse}
        - !<FileTransform> {src: linear_to_sRGB.spi1d, interpolation: linear}
    allocation: uniform
    allocationvars: [0, 1]        

  - !<ColorSpace>
    name: rec709_display
    family: Utility
    bitdepth: 32f
    description: Gamma 2.4 - Rec.709 - D65
    from_reference: !<GroupTransform>
      children:
        - !<MatrixTransform> {matrix: [0.4338873, 0.3762240, 0.1898886, 0, 0.2126390, 0.7151687, 0.0721923, 0, 0.0177500, 0.1094476, 0.8728023, 0, 0, 0, 0, 1], direction: inverse}
        - !<FileTransform> {src: linear_to_rec1886.spi1d, interpolation: linear}
    allocation: uniform
    allocationvars: [0, 1]            

######################################## LOOKS ######################################################

looks:
  - !<Look>
    name: 1110 Black and White
    process_space: logc4_arriwg4
    transform: !<FileTransform> {src: ARRI-LL-LogC4_1110_Black_and_White.cube, interpolation: tetrahedral}

  - !<Look>
    name: 1111 Black and White
    process_space: logc4_arriwg4
    transform: !<FileTransform> {src: ARRI-LL-LogC4_1111_Black_and_White.cube, interpolation: tetrahedral}

  - !<Look>
    name: 1120 Black and White - Night sky
    process_space: logc4_arriwg4
    transform: !<FileTransform> {src: ARRI-LL-LogC4_1120_Black_and_White_-_Night_sky.cube, interpolation: tetrahedral}

  - !<Look>
    name: 2110 Commercial
    process_space: logc4_arriwg4
    transform: !<FileTransform> {src: ARRI-LL-LogC4_2110_Commercial.cube, interpolation: tetrahedral}

  - !<Look>
    name: 2111 Commercial
    process_space: logc4_arriwg4
    transform: !<FileTransform> {src: ARRI-LL-LogC4_2111_Commercial.cube, interpolation: tetrahedral}

  - !<Look>
    name: 2120 Fashion
    process_space: logc4_arriwg4
    transform: !<FileTransform> {src: ARRI-LL-LogC4_2120_Fashion.cube, interpolation: tetrahedral}

  - !<Look>
    name: 2121 Fashion
    process_space: logc4_arriwg4
    transform: !<FileTransform> {src: ARRI-LL-LogC4_2121_Fashion.cube, interpolation: tetrahedral}

  - !<Look>
    name: 2130 Beauty
    process_space: logc4_arriwg4
    transform: !<FileTransform> {src: ARRI-LL-LogC4_2130_Beauty.cube, interpolation: tetrahedral}

  - !<Look>
    name: 2131 Beauty
    process_space: logc4_arriwg4
    transform: !<FileTransform> {src: ARRI-LL-LogC4_2131_Beauty.cube, interpolation: tetrahedral}

  - !<Look>
    name: 3110 Film A
    process_space: logc4_arriwg4
    transform: !<FileTransform> {src: ARRI-LL-LogC4_3110_Film_A.cube, interpolation: tetrahedral}

  - !<Look>
    name: 3111 Film B
    process_space: logc4_arriwg4
    transform: !<FileTransform> {src: ARRI-LL-LogC4_3111_Film_B.cube, interpolation: tetrahedral}

  - !<Look>
    name: 3112 Film C
    process_space: logc4_arriwg4
    transform: !<FileTransform> {src: ARRI-LL-LogC4_3112_Film_C.cube, interpolation: tetrahedral}

  - !<Look>
    name: 3113 Film D
    process_space: logc4_arriwg4
    transform: !<FileTransform> {src: ARRI-LL-LogC4_3113_Film_D.cube, interpolation: tetrahedral}

  - !<Look>
    name: 3114 Film E
    process_space: logc4_arriwg4
    transform: !<FileTransform> {src: ARRI-LL-LogC4_3114_Film_E.cube, interpolation: tetrahedral}

  - !<Look>
    name: 3150 Film Process Bleach Bypass
    process_space: logc4_arriwg4
    transform: !<FileTransform> {src: ARRI-LL-LogC4_3150_Film_Process_-_Bleach_bypass.cube, interpolation: tetrahedral}

  - !<Look>
    name: 3151 Film Process Bleach Bypass
    process_space: logc4_arriwg4
    transform: !<FileTransform> {src: ARRI-LL-LogC4_3151_Film_Process_-_Bleach_bypass.cube, interpolation: tetrahedral}

  - !<Look>
    name: 3210 Vintage
    process_space: logc4_arriwg4
    transform: !<FileTransform> {src: ARRI-LL-LogC4_3210_Vintage.cube, interpolation: tetrahedral}

  - !<Look>
    name: 3211 Vintage
    process_space: logc4_arriwg4
    transform: !<FileTransform> {src: ARRI-LL-LogC4_3211_Vintage.cube, interpolation: tetrahedral}

  - !<Look>
    name: 3220 Analog
    process_space: logc4_arriwg4
    transform: !<FileTransform> {src: ARRI-LL-LogC4_3220_Analog.cube, interpolation: tetrahedral}

  - !<Look>
    name: 3221 Analog
    process_space: logc4_arriwg4
    transform: !<FileTransform> {src: ARRI-LL-LogC4_3221_Analog.cube, interpolation: tetrahedral}

  - !<Look>
    name: 3230 Retro
    process_space: logc4_arriwg4
    transform: !<FileTransform> {src: ARRI-LL-LogC4_3230_Retro.cube, interpolation: tetrahedral}

  - !<Look>
    name: 3231 Retro
    process_space: logc4_arriwg4
    transform: !<FileTransform> {src: ARRI-LL-LogC4_3231_Retro.cube, interpolation: tetrahedral}

  - !<Look>
    name: 3240 Faded
    process_space: logc4_arriwg4
    transform: !<FileTransform> {src: ARRI-LL-LogC4_3240_Faded.cube, interpolation: tetrahedral}

  - !<Look>
    name: 3241 Faded
    process_space: logc4_arriwg4
    transform: !<FileTransform> {src: ARRI-LL-LogC4_3241_Faded.cube, interpolation: tetrahedral}

  - !<Look>
    name: 3250 Cross
    process_space: logc4_arriwg4
    transform: !<FileTransform> {src: ARRI-LL-LogC4_3250_Cross.cube, interpolation: tetrahedral}

  - !<Look>
    name: 3410 Film Teal And Orange
    process_space: logc4_arriwg4
    transform: !<FileTransform> {src: ARRI-LL-LogC4_3410_Film_-_Teal_and_orange.cube, interpolation: tetrahedral}

  - !<Look>
    name: 3411 Film Teal And Orange
    process_space: logc4_arriwg4
    transform: !<FileTransform> {src: ARRI-LL-LogC4_3411_Film_-_Teal_and_orange.cube, interpolation: tetrahedral}

  - !<Look>
    name: 3420 Video Teal And Orange
    process_space: logc4_arriwg4
    transform: !<FileTransform> {src: ARRI-LL-LogC4_3420_Video_-_Teal_and_orange.cube, interpolation: tetrahedral}

  - !<Look>
    name: 4110 Tinted Desert
    process_space: logc4_arriwg4
    transform: !<FileTransform> {src: ARRI-LL-LogC4_4110_Tinted_-_Desert.cube, interpolation: tetrahedral}

  - !<Look>
    name: 4120 Tinted Sepia
    process_space: logc4_arriwg4
    transform: !<FileTransform> {src: ARRI-LL-LogC4_4120_Tinted_-_Sepia.cube, interpolation: tetrahedral}

  - !<Look>
    name: 4130 Tinted Orange
    process_space: logc4_arriwg4
    transform: !<FileTransform> {src: ARRI-LL-LogC4_4130_Tinted_-_Orange.cube, interpolation: tetrahedral}

  - !<Look>
    name: 4131 Tinted Orange
    process_space: logc4_arriwg4
    transform: !<FileTransform> {src: ARRI-LL-LogC4_4131_Tinted_-_Orange.cube, interpolation: tetrahedral}

  - !<Look>
    name: 4140 Tinted Earth
    process_space: logc4_arriwg4
    transform: !<FileTransform> {src: ARRI-LL-LogC4_4140_Tinted_-_Earth.cube, interpolation: tetrahedral}

  - !<Look>
    name: 4150 Tinted White
    process_space: logc4_arriwg4
    transform: !<FileTransform> {src: ARRI-LL-LogC4_4150_Tinted_-_White.cube, interpolation: tetrahedral}

  - !<Look>
    name: 4160 Tinted Teal
    process_space: logc4_arriwg4
    transform: !<FileTransform> {src: ARRI-LL-LogC4_4160_Tinted_-_Teal.cube, interpolation: tetrahedral}

  - !<Look>
    name: 4170 Tinted Blue Sky
    process_space: logc4_arriwg4
    transform: !<FileTransform> {src: ARRI-LL-LogC4_4170_Tinted_-_Blue_sky.cube, interpolation: tetrahedral}

  - !<Look>
    name: 4180 Tinted Ocean
    process_space: logc4_arriwg4
    transform: !<FileTransform> {src: ARRI-LL-LogC4_4180_Tinted_-_Ocean.cube, interpolation: tetrahedral}

  - !<Look>
    name: 4190 Tinted Aqua
    process_space: logc4_arriwg4
    transform: !<FileTransform> {src: ARRI-LL-LogC4_4190_Tinted_-_Aqua.cube, interpolation: tetrahedral}

  - !<Look>
    name: 4210 Tinted Green
    process_space: logc4_arriwg4
    transform: !<FileTransform> {src: ARRI-LL-LogC4_4210_Tinted_-_Green.cube, interpolation: tetrahedral}

  - !<Look>
    name: 4220 Tinted Magenta
    process_space: logc4_arriwg4
    transform: !<FileTransform> {src: ARRI-LL-LogC4_4220_Tinted_-_Magenta.cube, interpolation: tetrahedral}

  - !<Look>
    name: 4230 Tinted Yellow
    process_space: logc4_arriwg4
    transform: !<FileTransform> {src: ARRI-LL-LogC4_4230_Tinted_-_Yellow.cube, interpolation: tetrahedral}

  - !<Look>
    name: 4240 Tinted Fire
    process_space: logc4_arriwg4
    transform: !<FileTransform> {src: ARRI-LL-LogC4_4240_Tinted_-_Fire.cube, interpolation: tetrahedral}

  - !<Look>
    name: 5110 Nature
    process_space: logc4_arriwg4
    transform: !<FileTransform> {src: ARRI-LL-LogC4_5110_Nature.cube, interpolation: tetrahedral}

  - !<Look>
    name: 5111 Nature
    process_space: logc4_arriwg4
    transform: !<FileTransform> {src: ARRI-LL-LogC4_5111_Nature.cube, interpolation: tetrahedral}

  - !<Look>
    name: 5120 City
    process_space: logc4_arriwg4
    transform: !<FileTransform> {src: ARRI-LL-LogC4_5120_City.cube, interpolation: tetrahedral}

  - !<Look>
    name: 5121 City
    process_space: logc4_arriwg4
    transform: !<FileTransform> {src: ARRI-LL-LogC4_5121_City.cube, interpolation: tetrahedral}

  - !<Look>
    name: 5122 City
    process_space: logc4_arriwg4
    transform: !<FileTransform> {src: ARRI-LL-LogC4_5122_City.cube, interpolation: tetrahedral}

  - !<Look>
    name: 5130 Suburban
    process_space: logc4_arriwg4
    transform: !<FileTransform> {src: ARRI-LL-LogC4_5130_Suburban.cube, interpolation: tetrahedral}

  - !<Look>
    name: 5131 Suburban
    process_space: logc4_arriwg4
    transform: !<FileTransform> {src: ARRI-LL-LogC4_5131_Suburban.cube, interpolation: tetrahedral}

  - !<Look>
    name: 5210 Vibrant
    process_space: logc4_arriwg4
    transform: !<FileTransform> {src: ARRI-LL-LogC4_5210_Vibrant.cube, interpolation: tetrahedral}

  - !<Look>
    name: 5220 Desaturated
    process_space: logc4_arriwg4
    transform: !<FileTransform> {src: ARRI-LL-LogC4_5220_Desaturated.cube, interpolation: tetrahedral}

  - !<Look>
    name: 5230 Saturated
    process_space: logc4_arriwg4
    transform: !<FileTransform> {src: ARRI-LL-LogC4_5230_Saturated.cube, interpolation: tetrahedral}

  - !<Look>
    name: 6110 Warm
    process_space: logc4_arriwg4
    transform: !<FileTransform> {src: ARRI-LL-LogC4_6110_Warm.cube, interpolation: tetrahedral}

  - !<Look>
    name: 6111 Warm
    process_space: logc4_arriwg4
    transform: !<FileTransform> {src: ARRI-LL-LogC4_6111_Warm.cube, interpolation: tetrahedral}

  - !<Look>
    name: 6112 Warm
    process_space: logc4_arriwg4
    transform: !<FileTransform> {src: ARRI-LL-LogC4_6112_Warm.cube, interpolation: tetrahedral}

  - !<Look>
    name: 6120 Cold
    process_space: logc4_arriwg4
    transform: !<FileTransform> {src: ARRI-LL-LogC4_6120_Cold.cube, interpolation: tetrahedral}

  - !<Look>
    name: 6121 Cold
    process_space: logc4_arriwg4
    transform: !<FileTransform> {src: ARRI-LL-LogC4_6121_Cold.cube, interpolation: tetrahedral}

  - !<Look>
    name: 6210 Spring
    process_space: logc4_arriwg4
    transform: !<FileTransform> {src: ARRI-LL-LogC4_6210_Spring.cube, interpolation: tetrahedral}

  - !<Look>
    name: 6220 Summer
    process_space: logc4_arriwg4
    transform: !<FileTransform> {src: ARRI-LL-LogC4_6220_Summer.cube, interpolation: tetrahedral}

  - !<Look>
    name: 6230 Autumn
    process_space: logc4_arriwg4
    transform: !<FileTransform> {src: ARRI-LL-LogC4_6230_Autumn.cube, interpolation: tetrahedral}

  - !<Look>
    name: 6240 Winter
    process_space: logc4_arriwg4
    transform: !<FileTransform> {src: ARRI-LL-LogC4_6240_Winter.cube, interpolation: tetrahedral}

  - !<Look>
    name: 6310 Pastel
    process_space: logc4_arriwg4
    transform: !<FileTransform> {src: ARRI-LL-LogC4_6310_Pastel.cube, interpolation: tetrahedral}

  - !<Look>
    name: 6311 Pastel
    process_space: logc4_arriwg4
    transform: !<FileTransform> {src: ARRI-LL-LogC4_6311_Pastel.cube, interpolation: tetrahedral}

  - !<Look>
    name: 6410 Sunset
    process_space: logc4_arriwg4
    transform: !<FileTransform> {src: ARRI-LL-LogC4_6410_Sunset.cube, interpolation: tetrahedral}

  - !<Look>
    name: 6420 Early Morning
    process_space: logc4_arriwg4
    transform: !<FileTransform> {src: ARRI-LL-LogC4_6420_Early_Morning.cube, interpolation: tetrahedral}

  - !<Look>
    name: 6610 Desert
    process_space: logc4_arriwg4
    transform: !<FileTransform> {src: ARRI-LL-LogC4_6610_Desert.cube, interpolation: tetrahedral}

  - !<Look>
    name: 6620 Snow
    process_space: logc4_arriwg4
    transform: !<FileTransform> {src: ARRI-LL-LogC4_6620_Snow.cube, interpolation: tetrahedral}

  - !<Look>
    name: 7110 Low Contrast
    process_space: logc4_arriwg4
    transform: !<FileTransform> {src: ARRI-LL-LogC4_7110_Low_Contrast.cube, interpolation: tetrahedral}

  - !<Look>
    name: 7111 Low Contrast
    process_space: logc4_arriwg4
    transform: !<FileTransform> {src: ARRI-LL-LogC4_7111_Low_Contrast.cube, interpolation: tetrahedral}

  - !<Look>
    name: 7120 High Contrast
    process_space: logc4_arriwg4
    transform: !<FileTransform> {src: ARRI-LL-LogC4_7120_High_Contrast.cube, interpolation: tetrahedral}

  - !<Look>
    name: 7121 High Contrast
    process_space: logc4_arriwg4
    transform: !<FileTransform> {src: ARRI-LL-LogC4_7121_High_Contrast.cube, interpolation: tetrahedral}

  - !<Look>
    name: 7130 High Key
    process_space: logc4_arriwg4
    transform: !<FileTransform> {src: ARRI-LL-LogC4_7130_High_Key.cube, interpolation: tetrahedral}

  - !<Look>
    name: 7131 High Key
    process_space: logc4_arriwg4
    transform: !<FileTransform> {src: ARRI-LL-LogC4_7131_High_Key.cube, interpolation: tetrahedral}
     
  - !<Look>
    name: 7140 Low Key
    process_space: logc4_arriwg4
    transform: !<FileTransform> {src: ARRI-LL-LogC4_7140_Low_Key.cube, interpolation: tetrahedral}

  - !<Look>
    name: 8120 Twenties
    process_space: logc4_arriwg4
    transform: !<FileTransform> {src: ARRI-LL-LogC4_8120_20s.cube, interpolation: tetrahedral}

  - !<Look>
    name: 8130 Thirties
    process_space: logc4_arriwg4
    transform: !<FileTransform> {src: ARRI-LL-LogC4_8130_30s.cube, interpolation: tetrahedral}

  - !<Look>
    name: 8140 Forties
    process_space: logc4_arriwg4
    transform: !<FileTransform> {src: ARRI-LL-LogC4_8140_40s.cube, interpolation: tetrahedral}

  - !<Look>
    name: 8150 Fifties
    process_space: logc4_arriwg4
    transform: !<FileTransform> {src: ARRI-LL-LogC4_8150_50s.cube, interpolation: tetrahedral}

  - !<Look>
    name: 8160 Sixties
    process_space: logc4_arriwg4
    transform: !<FileTransform> {src: ARRI-LL-LogC4_8160_60s.cube, interpolation: tetrahedral}

  - !<Look>
    name: 8170 Seventies
    process_space: logc4_arriwg4
    transform: !<FileTransform> {src: ARRI-LL-LogC4_8170_70s.cube, interpolation: tetrahedral}

  - !<Look>
    name: 8180 Eighties
    process_space: logc4_arriwg4
    transform: !<FileTransform> {src: ARRI-LL-LogC4_8180_80s.cube, interpolation: tetrahedral}

  - !<Look>
    name: 8190 Nineties
    process_space: logc4_arriwg4
    transform: !<FileTransform> {src: ARRI-LL-LogC4_8190_90s.cube, interpolation: tetrahedral}

  - !<Look>
    name: 9110 Dream
    process_space: logc4_arriwg4
    transform: !<FileTransform> {src: ARRI-LL-LogC4_9110_Dream.cube, interpolation: tetrahedral}

  - !<Look>
    name: 9111 Dream
    process_space: logc4_arriwg4
    transform: !<FileTransform> {src: ARRI-LL-LogC4_9111_Dream.cube, interpolation: tetrahedral}

  - !<Look>
    name: 9120 Flash Back
    process_space: logc4_arriwg4
    transform: !<FileTransform> {src: ARRI-LL-LogC4_9120_Flash_Back.cube, interpolation: tetrahedral}

  - !<Look>
    name: 9210 Day For Night
    process_space: logc4_arriwg4
    transform: !<FileTransform> {src: ARRI-LL-LogC4_9210_Day_for_Night.cube, interpolation: tetrahedral}

  - !<Look>
    name: 9211 Day For Night
    process_space: logc4_arriwg4
    transform: !<FileTransform> {src: ARRI-LL-LogC4_9211_Day_for_Night.cube, interpolation: tetrahedral}
