transforms/oetf_arri_logc4_to_linear.spi1d
Version 1
From -0.1 1.1
Length 16384
Components 1
{
-0.029416717
-0.029408396
-0.029400076
-0.029391755
-0.029383435
-0.029375114
-0.029366793
-0.029358473
-0.029350152
-0.029341831
-0.029333511
-0.02932519
-0.02931687
-0.029308549
-0.029300228
-0.029291908
-0.029283587
-0.029275267
-0.029266946
-0.029258625
-0.029250305
-0.029241984
-0.029233663
-0.029225343
-0.029217022
-0.029208702
-0.029200381
-0.02919206
-0.02918374
-0.029175419
-0.029167099
-0.029158778
-0.029150457
-0.029142137
-0.029133816
-0.029125495
-0.029117175
-0.029108854
-0.029100534
-0.029092213
-0.029083892
-0.029075572
-0.029067251
-0.02905893
-0.02905061
-0.029042289
-0.029033969
-0.029025648
-0.029017327
-0.029009007
-0.029000686
-0.028992366
-0.028984045
-0.028975724
-0.028967404
-0.028959083
-0.028950762
-0.028942442
-0.028934121
-0.028925801
-0.02891748
-0.028909159
-0.028900839
-0.028892518
-0.028884198
-0.028875877
-0.028867556
-0.028859236
-0.028850915
-0.028842594
-0.028834274
-0.028825953
-0.028817633
-0.028809312
-0.028800991
-0.028792671
-0.02878435
-0.02877603
-0.028767709
-0.028759388
-0.028751068
-0.028742747
-0.028734426
-0.028726106
-0.028717785
-0.028709465
-0.028701144
-0.028692823
-0.028684503
-0.028676182
-0.028667862
-0.028659541
-0.02865122
-0.0286429
-0.028634579
-0.028626258
-0.028617938
-0.028609617
-0.028601297
-0.028592976
-0.028584655
-0.028576335
-0.028568014
-0.028559694
-0.028551373
-0.028543052
-0.028534732
-0.028526411
-0.02851809
-0.02850977
-0.028501449
-0.028493129
-0.028484808
-0.028476487
-0.028468167
-0.028459846
-0.028451526
-0.028443205
-0.028434884
-0.028426564
-0.028418243
-0.028409922
-0.028401602
-0.028393281
-0.028384961
-0.02837664
-0.028368319
-0.028359999
-0.028351678
-0.028343358
-0.028335037
-0.028326716
-0.028318396
-0.028310075
-0.028301754
-0.028293434
-0.028285113
-0.028276793
-0.028268472
-0.028260151
-0.028251831
-0.02824351
-0.02823519
-0.028226869
-0.028218548
-0.028210228
-0.028201907
-0.028193586
-0.028185266
-0.028176945
-0.028168625
-0.028160304
-0.028151983
-0.028143663
-0.028135342
-0.028127022
-0.028118701
-0.02811038
-0.02810206
-0.028093739
-0.028085418
-0.028077098
-0.028068777
-0.028060457
-0.028052136
-0.028043815
-0.028035495
-0.028027174
-0.028018854
-0.028010533
-0.028002212
-0.027993892
-0.027985571
-0.02797725
-0.02796893
-0.027960609
-0.027952289
-0.027943968
-0.027935647
-0.027927327
-0.027919006
-0.027910686
-0.027902365
-0.027894044
-0.027885724
-0.027877403
-0.027869082
-0.027860762
-0.027852441
-0.027844121
-0.0278358
-0.027827479
-0.027819159
-0.027810838
-0.027802517
-0.027794197
-0.027785876
-0.027777556
-0.027769235
-0.027760914
-0.027752594
-0.027744273
-0.027735953
-0.027727632
-0.027719311
-0.027710991
-0.02770267
-0.027694349
-0.027686029
-0.027677708
-0.027669388
-0.027661067
-0.027652746
-0.027644426
-0.027636105
-0.027627785
-0.027619464
-0.027611143
-0.027602823
-0.027594502
-0.027586181
-0.027577861
-0.02756954
-0.02756122
-0.027552899
-0.027544578
-0.027536258
-0.027527937
-0.027519617
-0.027511296
-0.027502975
-0.027494655
-0.027486334
-0.027478013
-0.027469693
-0.027461372
-0.027453052
-0.027444731
-0.02743641
-0.02742809
-0.027419769
-0.027411449
-0.027403128
-0.027394807
-0.027386487
-0.027378166
-0.027369845
-0.027361525
-0.027353204
-0.027344884
-0.027336563
-0.027328242
-0.027319922
-0.027311601
-0.027303281
-0.02729496
-0.027286639
-0.027278319
-0.027269998
-0.027261677
-0.027253357
-0.027245036
-0.027236716
-0.027228395
-0.027220074
-0.027211754
-0.027203433
-0.027195113
-0.027186792
-0.027178471
-0.027170151
-0.02716183
-0.027153509
-0.027145189
-0.027136868
-0.027128548
-0.027120227
-0.027111906
-0.027103586
-0.027095265
-0.027086945
-0.027078624
-0.027070303
-0.027061983
-0.027053662
-0.027045341
-0.027037021
-0.0270287
-0.02702038
-0.027012059
-0.027003738
-0.026995418
-0.026987097
-0.026978777
-0.026970456
-0.026962135
-0.026953815
-0.026945494
-0.026937173
-0.026928853
-0.026920532
-0.026912212
-0.026903891
-0.02689557
-0.02688725
-0.026878929
-0.026870609
-0.026862288
-0.026853967
-0.026845647
-0.026837326
-0.026829005
-0.026820685
-0.026812364
-0.026804044
-0.026795723
-0.026787402
-0.026779082
-0.026770761
-0.026762441
-0.02675412
-0.026745799
-0.026737479
-0.026729158
-0.026720837
-0.026712517
-0.026704196
-0.026695876
-0.026687555
-0.026679234
-0.026670914
-0.026662593
-0.026654273
-0.026645952
-0.026637631
-0.026629311
-0.02662099
-0.026612669
-0.026604349
-0.026596028
-0.026587708
-0.026579387
-0.026571066
-0.026562746
-0.026554425
-0.026546104
-0.026537784
-0.026529463
-0.026521143
-0.026512822
-0.026504501
-0.026496181
-0.02648786
-0.02647954
-0.026471219
-0.026462898
-0.026454578
-0.026446257
-0.026437936
-0.026429616
-0.026421295
-0.026412975
-0.026404654
-0.026396333
-0.026388013
-0.026379692
-0.026371372
-0.026363051
-0.02635473
-0.02634641
-0.026338089
-0.026329768
-0.026321448
-0.026313127
-0.026304807
-0.026296486
-0.026288165
-0.026279845
-0.026271524
-0.026263204
-0.026254883
-0.026246562
-0.026238242
-0.026229921
-0.0262216
-0.02621328
-0.026204959
-0.026196639
-0.026188318
-0.026179997
-0.026171677
-0.026163356
-0.026155036
-0.026146715
-0.026138394
-0.026130074
-0.026121753
-0.026113432
-0.026105112
-0.026096791
-0.026088471
-0.02608015
-0.026071829
-0.026063509
-0.026055188
-0.026046868
-0.026038547
-0.026030226
-0.026021906
-0.026013585
-0.026005264
-0.025996944
-0.025988623
-0.025980303
-0.025971982
-0.025963661
-0.025955341
-0.02594702
-0.0259387
-0.025930379
-0.025922058
-0.025913738
-0.025905417
-0.025897096
-0.025888776
-0.025880455
-0.025872135
-0.025863814
-0.025855493
-0.025847173
-0.025838852
-0.025830532
-0.025822211
-0.02581389
-0.02580557
-0.025797249
-0.025788928
-0.025780608
-0.025772287
-0.025763967
-0.025755646
-0.025747325
-0.025739005
-0.025730684
-0.025722364
-0.025714043
-0.025705722
-0.025697402
-0.025689081
-0.02568076
-0.02567244
-0.025664119
-0.025655799
-0.025647478
-0.025639157
-0.025630837
-0.025622516
-0.025614196
-0.025605875
-0.025597554
-0.025589234
-0.025580913
-0.025572592
-0.025564272
-0.025555951
-0.025547631
-0.02553931
-0.025530989
-0.025522669
-0.025514348
-0.025506028
-0.025497707
-0.025489386
-0.025481066
-0.025472745
-0.025464424
-0.025456104
-0.025447783
-0.025439463
-0.025431142
-0.025422821
-0.025414501
-0.02540618
-0.02539786
-0.025389539
-0.025381218
-0.025372898
-0.025364577
-0.025356256
-0.025347936
-0.025339615
-0.025331295
-0.025322974
-0.025314653
-0.025306333
-0.025298012
-0.025289691
-0.025281371
-0.02527305
-0.02526473
-0.025256409
-0.025248088
-0.025239768
-0.025231447
-0.025223127
-0.025214806
-0.025206485
-0.025198165
-0.025189844
-0.025181523
-0.025173203
-0.025164882
-0.025156562
-0.025148241
-0.02513992
-0.0251316
-0.025123279
-0.025114959
-0.025106638
-0.025098317
-0.025089997
-0.025081676
-0.025073355
-0.025065035
-0.025056714
-0.025048394
-0.025040073
-0.025031752
-0.025023432
-0.025015111
-0.025006791
-0.02499847
-0.024990149
-0.024981829
-0.024973508
-0.024965187
-0.024956867
-0.024948546
-0.024940226
-0.024931905
-0.024923584
-0.024915264
-0.024906943
-0.024898623
-0.024890302
-0.024881981
-0.024873661
-0.02486534
-0.024857019
-0.024848699
-0.024840378
-0.024832058
-0.024823737
-0.024815416
-0.024807096
-0.024798775
-0.024790455
-0.024782134
-0.024773813
-0.024765493
-0.024757172
-0.024748851
-0.024740531
-0.02473221
-0.02472389
-0.024715569
-0.024707248
-0.024698928
-0.024690607
-0.024682287
-0.024673966
-0.024665645
-0.024657325
-0.024649004
-0.024640683
-0.024632363
-0.024624042
-0.024615722
-0.024607401
-0.02459908
-0.02459076
-0.024582439
-0.024574119
-0.024565798
-0.024557477
-0.024549157
-0.024540836
-0.024532515
-0.024524195
-0.024515874
-0.024507554
-0.024499233
-0.024490912
-0.024482592
-0.024474271
-0.024465951
-0.02445763
-0.024449309
-0.024440989
-0.024432668
-0.024424347
-0.024416027
-0.024407706
-0.024399386
-0.024391065
-0.024382744
-0.024374424
-0.024366103
-0.024357783
-0.024349462
-0.024341141
-0.024332821
-0.0243245
-0.024316179
-0.024307859
-0.024299538
-0.024291218
-0.024282897
-0.024274576
-0.024266256
-0.024257935
-0.024249615
-0.024241294
-0.024232973
-0.024224653
-0.024216332
-0.024208011
-0.024199691
-0.02419137
-0.02418305
-0.024174729
-0.024166408
-0.024158088
-0.024149767
-0.024141446
-0.024133126
-0.024124805
-0.024116485
-0.024108164
-0.024099843
-0.024091523
-0.024083202
-0.024074882
-0.024066561
-0.02405824
-0.02404992
-0.024041599
-0.024033278
-0.024024958
-0.024016637
-0.024008317
-0.023999996
-0.023991675
-0.023983355
-0.023975034
-0.023966714
-0.023958393
-0.023950072
-0.023941752
-0.023933431
-0.02392511
-0.02391679
-0.023908469
-0.023900149
-0.023891828
-0.023883507
-0.023875187
-0.023866866
-0.023858546
-0.023850225
-0.023841904
-0.023833584
-0.023825263
-0.023816942
-0.023808622
-0.023800301
-0.023791981
-0.02378366
-0.023775339
-0.023767019
-0.023758698
-0.023750378
-0.023742057
-0.023733736
-0.023725416
-0.023717095
-0.023708774
-0.023700454
-0.023692133
-0.023683813
-0.023675492
-0.023667171
-0.023658851
-0.02365053
-0.02364221
-0.023633889
-0.023625568
-0.023617248
-0.023608927
-0.023600606
-0.023592286
-0.023583965
-0.023575645
-0.023567324
-0.023559003
-0.023550683
-0.023542362
-0.023534042
-0.023525721
-0.0235174
-0.02350908
-0.023500759
-0.023492438
-0.023484118
-0.023475797
-0.023467477
-0.023459156
-0.023450835
-0.023442515
-0.023434194
-0.023425874
-0.023417553
-0.023409232
-0.023400912
-0.023392591
-0.02338427
-0.02337595
-0.023367629
-0.023359309
-0.023350988
-0.023342667
-0.023334347
-0.023326026
-0.023317706
-0.023309385
-0.023301064
-0.023292744
-0.023284423
-0.023276102
-0.023267782
-0.023259461
-0.023251141
-0.02324282
-0.023234499
-0.023226179
-0.023217858
-0.023209538
-0.023201217
-0.023192896
-0.023184576
-0.023176255
-0.023167934
-0.023159614
-0.023151293
-0.023142973
-0.023134652
-0.023126331
-0.023118011
-0.02310969
-0.02310137
-0.023093049
-0.023084728
-0.023076408
-0.023068087
-0.023059766
-0.023051446
-0.023043125
-0.023034805
-0.023026484
-0.023018163
-0.023009843
-0.023001522
-0.022993202
-0.022984881
-0.02297656
-0.02296824
-0.022959919
-0.022951598
-0.022943278
-0.022934957
-0.022926637
-0.022918316
-0.022909995
-0.022901675
-0.022893354
-0.022885033
-0.022876713
-0.022868392
-0.022860072
-0.022851751
-0.02284343
-0.02283511
-0.022826789
-0.022818469
-0.022810148
-0.022801827
-0.022793507
-0.022785186
-0.022776865
-0.022768545
-0.022760224
-0.022751904
-0.022743583
-0.022735262
-0.022726942
-0.022718621
-0.022710301
-0.02270198
-0.022693659
-0.022685339
-0.022677018
-0.022668697
-0.022660377
-0.022652056
-0.022643736
-0.022635415
-0.022627094
-0.022618774
-0.022610453
-0.022602133
-0.022593812
-0.022585491
-0.022577171
-0.02256885
-0.022560529
-0.022552209
-0.022543888
-0.022535568
-0.022527247
-0.022518926
-0.022510606
-0.022502285
-0.022493965
-0.022485644
-0.022477323
-0.022469003
-0.022460682
-0.022452361
-0.022444041
-0.02243572
-0.0224274
-0.022419079
-0.022410758
-0.022402438
-0.022394117
-0.022385797
-0.022377476
-0.022369155
-0.022360835
-0.022352514
-0.022344193
-0.022335873
-0.022327552
-0.022319232
-0.022310911
-0.02230259
-0.02229427
-0.022285949
-0.022277629
-0.022269308
-0.022260987
-0.022252667
-0.022244346
-0.022236025
-0.022227705
-0.022219384
-0.022211064
-0.022202743
-0.022194422
-0.022186102
-0.022177781
-0.022169461
-0.02216114
-0.022152819
-0.022144499
-0.022136178
-0.022127857
-0.022119537
-0.022111216
-0.022102896
-0.022094575
-0.022086254
-0.022077934
-0.022069613
-0.022061293
-0.022052972
-0.022044651
-0.022036331
-0.02202801
-0.022019689
-0.022011369
-0.022003048
-0.021994728
-0.021986407
-0.021978086
-0.021969766
-0.021961445
-0.021953125
-0.021944804
-0.021936483
-0.021928163
-0.021919842
-0.021911521
-0.021903201
-0.02189488
-0.02188656
-0.021878239
-0.021869918
-0.021861598
-0.021853277
-0.021844957
-0.021836636
-0.021828315
-0.021819995
-0.021811674
-0.021803353
-0.021795033
-0.021786712
-0.021778392
-0.021770071
-0.02176175
-0.02175343
-0.021745109
-0.021736789
-0.021728468
-0.021720147
-0.021711827
-0.021703506
-0.021695185
-0.021686865
-0.021678544
-0.021670224
-0.021661903
-0.021653582
-0.021645262
-0.021636941
-0.02162862
-0.0216203
-0.021611979
-0.021603659
-0.021595338
-0.021587017
-0.021578697
-0.021570376
-0.021562056
-0.021553735
-0.021545414
-0.021537094
-0.021528773
-0.021520452
-0.021512132
-0.021503811
-0.021495491
-0.02148717
-0.021478849
-0.021470529
-0.021462208
-0.021453888
-0.021445567
-0.021437246
-0.021428926
-0.021420605
-0.021412284
-0.021403964
-0.021395643
-0.021387323
-0.021379002
-0.021370681
-0.021362361
-0.02135404
-0.02134572
-0.021337399
-0.021329078
-0.021320758
-0.021312437
-0.021304116
-0.021295796
-0.021287475
-0.021279155
-0.021270834
-0.021262513
-0.021254193
-0.021245872
-0.021237552
-0.021229231
-0.02122091
-0.02121259
-0.021204269
-0.021195948
-0.021187628
-0.021179307
-0.021170987
-0.021162666
-0.021154345
-0.021146025
-0.021137704
-0.021129384
-0.021121063
-0.021112742
-0.021104422
-0.021096101
-0.02108778
-0.02107946
-0.021071139
-0.021062819
-0.021054498
-0.021046177
-0.021037857
-0.021029536
-0.021021216
-0.021012895
-0.021004574
-0.020996254
-0.020987933
-0.020979612
-0.020971292
-0.020962971
-0.020954651
-0.02094633
-0.020938009
-0.020929689
-0.020921368
-0.020913048
-0.020904727
-0.020896406
-0.020888086
-0.020879765
-0.020871444
-0.020863124
-0.020854803
-0.020846483
-0.020838162
-0.020829841
-0.020821521
-0.0208132
-0.02080488
-0.020796559
-0.020788238
-0.020779918
-0.020771597
-0.020763276
-0.020754956
-0.020746635
-0.020738315
-0.020729994
-0.020721673
-0.020713353
-0.020705032
-0.020696712
-0.020688391
-0.02068007
-0.02067175
-0.020663429
-0.020655108
-0.020646788
-0.020638467
-0.020630147
-0.020621826
-0.020613505
-0.020605185
-0.020596864
-0.020588544
-0.020580223
-0.020571902
-0.020563582
-0.020555261
-0.02054694
-0.02053862
-0.020530299
-0.020521979
-0.020513658
-0.020505337
-0.020497017
-0.020488696
-0.020480376
-0.020472055
-0.020463734
-0.020455414
-0.020447093
-0.020438772
-0.020430452
-0.020422131
-0.020413811
-0.02040549
-0.020397169
-0.020388849
-0.020380528
-0.020372207
-0.020363887
-0.020355566
-0.020347246
-0.020338925
-0.020330604
-0.020322284
-0.020313963
-0.020305643
-0.020297322
-0.020289001
-0.020280681
-0.02027236
-0.020264039
-0.020255719
-0.020247398
-0.020239078
-0.020230757
-0.020222436
-0.020214116
-0.020205795
-0.020197475
-0.020189154
-0.020180833
-0.020172513
-0.020164192
-0.020155871
-0.020147551
-0.02013923
-0.02013091
-0.020122589
-0.020114268
-0.019920398
-0.019913535
-0.019906666
-0.019899792
-0.019892913
-0.019886028
-0.019879138
-0.019872243
-0.019865342
-0.019858435
-0.019851523
-0.019844606
-0.019837684
-0.019830755
-0.019823822
-0.019816883
-0.019809939
-0.019802989
-0.019796034
-0.019789073
-0.019782107
-0.019775135
-0.019768158
-0.019761175
-0.019754187
-0.019747194
-0.019740195
-0.01973319
-0.01972618
-0.019719165
-0.019712144
-0.019705118
-0.019698086
-0.019691048
-0.019684005
-0.019676957
-0.019669902
-0.019662843
-0.019655778
-0.019648707
-0.019641631
-0.019634549
-0.019627462
-0.019620369
-0.019613271
-0.019606167
-0.019599057
-0.019591942
-0.019584821
-0.019577695
-0.019570563
-0.019563426
-0.019556283
-0.019549134
-0.01954198
-0.01953482
-0.019527654
-0.019520483
-0.019513307
-0.019506124
-0.019498936
-0.019491743
-0.019484544
-0.019477339
-0.019470128
-0.019462912
-0.01945569
-0.019448463
-0.01944123
-0.019433991
-0.019426746
-0.019419496
-0.01941224
-0.019404979
-0.019397711
-0.019390438
-0.01938316
-0.019375875
-0.019368585
-0.01936129
-0.019353988
-0.019346681
-0.019339368
-0.019332049
-0.019324725
-0.019317395
-0.019310059
-0.019302717
-0.01929537
-0.019288017
-0.019280658
-0.019273293
-0.019265922
-0.019258546
-0.019251164
-0.019243776
-0.019236383
-0.019228983
-0.019221578
-0.019214167
-0.01920675
-0.019199328
-0.019191899
-0.019184465
-0.019177025
-0.019169579
-0.019162127
-0.01915467
-0.019147206
-0.019139737
-0.019132262
-0.019124781
-0.019117294
-0.019109801
-0.019102302
-0.019094798
-0.019087288
-0.019079771
-0.019072249
-0.019064721
-0.019057187
-0.019049647
-0.019042101
-0.01903455
-0.019026992
-0.019019429
-0.019011859
-0.019004284
-0.018996702
-0.018989115
-0.018981522
-0.018973923
-0.018966318
-0.018958706
-0.018951089
-0.018943466
-0.018935837
-0.018928202
-0.018920561
-0.018912914
-0.018905262
-0.018897603
-0.018889938
-0.018882267
-0.01887459
-0.018866907
-0.018859218
-0.018851523
-0.018843822
-0.018836114
-0.018828401
-0.018820682
-0.018812957
-0.018805225
-0.018797488
-0.018789745
-0.018781995
-0.01877424
-0.018766478
-0.01875871
-0.018750936
-0.018743156
-0.01873537
-0.018727578
-0.01871978
-0.018711976
-0.018704165
-0.018696349
-0.018688526
-0.018680697
-0.018672862
-0.018665021
-0.018657174
-0.01864932
-0.018641461
-0.018633595
-0.018625723
-0.018617845
-0.018609961
-0.01860207
-0.018594174
-0.018586271
-0.018578362
-0.018570447
-0.018562525
-0.018554598
-0.018546664
-0.018538724
-0.018530778
-0.018522825
-0.018514866
-0.018506901
-0.01849893
-0.018490953
-0.018482969
-0.018474979
-0.018466983
-0.01845898
-0.018450971
-0.018442956
-0.018434935
-0.018426907
-0.018418874
-0.018410833
-0.018402787
-0.018394734
-0.018386675
-0.018378609
-0.018370538
-0.01836246
-0.018354375
-0.018346284
-0.018338187
-0.018330084
-0.018321974
-0.018313858
-0.018305735
-0.018297606
-0.018289471
-0.018281329
-0.018273181
-0.018265027
-0.018256866
-0.018248699
-0.018240525
-0.018232345
-0.018224159
-0.018215966
-0.018207767
-0.018199561
-0.018191349
-0.01818313
-0.018174905
-0.018166674
-0.018158436
-0.018150192
-0.018141941
-0.018133684
-0.01812542
-0.01811715
-0.018108873
-0.01810059
-0.0180923
-0.018084004
-0.018075701
-0.018067392
-0.018059076
-0.018050754
-0.018042425
-0.01803409
-0.018025748
-0.0180174
-0.018009045
-0.018000683
-0.017992315
-0.017983941
-0.017975559
-0.017967172
-0.017958777
-0.017950377
-0.017941969
-0.017933555
-0.017925134
-0.017916707
-0.017908273
-0.017899833
-0.017891386
-0.017882932
-0.017874472
-0.017866005
-0.017857531
-0.017849051
-0.017840564
-0.017832071
-0.01782357
-0.017815064
-0.01780655
-0.01779803
-0.017789503
-0.017780969
-0.017772429
-0.017763882
-0.017755329
-0.017746768
-0.017738201
-0.017729628
-0.017721047
-0.01771246
-0.017703866
-0.017695265
-0.017686658
-0.017678044
-0.017669423
-0.017660795
-0.017652161
-0.017643519
-0.017634871
-0.017626217
-0.017617555
-0.017608887
-0.017600212
-0.01759153
-0.017582841
-0.017574145
-0.017565443
-0.017556734
-0.017548018
-0.017539295
-0.017530565
-0.017521829
-0.017513085
-0.017504335
-0.017495578
-0.017486814
-0.017478043
-0.017469266
-0.017460481
-0.01745169
-0.017442891
-0.017434086
-0.017425274
-0.017416455
-0.017407629
-0.017398796
-0.017389956
-0.017381109
-0.017372256
-0.017363395
-0.017354527
-0.017345653
-0.017336771
-0.017327883
-0.017318988
-0.017310085
-0.017301176
-0.01729226
-0.017283336
-0.017274406
-0.017265469
-0.017256524
-0.017247573
-0.017238615
-0.017229649
-0.017220677
-0.017211697
-0.017202711
-0.017193717
-0.017184717
-0.017175709
-0.017166695
-0.017157673
-0.017148644
-0.017139608
-0.017130565
-0.017121515
-0.017112458
-0.017103394
-0.017094322
-0.017085244
-0.017076158
-0.017067065
-0.017057966
-0.017048859
-0.017039744
-0.017030623
-0.017021495
-0.017012359
-0.017003217
-0.016994067
-0.01698491
-0.016975745
-0.016966574
-0.016957395
-0.016948209
-0.016939016
-0.016929816
-0.016920609
-0.016911394
-0.016902172
-0.016892943
-0.016883707
-0.016874463
-0.016865212
-0.016855954
-0.016846689
-0.016837416
-0.016828137
-0.016818849
-0.016809555
-0.016800253
-0.016790944
-0.016781628
-0.016772305
-0.016762974
-0.016753635
-0.01674429
-0.016734937
-0.016725577
-0.016716209
-0.016706834
-0.016697452
-0.016688063
-0.016678666
-0.016669261
-0.01665985
-0.016650431
-0.016641004
-0.01663157
-0.016622129
-0.016612681
-0.016603225
-0.016593761
-0.01658429
-0.016574812
-0.016565326
-0.016555833
-0.016546333
-0.016536825
-0.016527309
-0.016517786
-0.016508256
-0.016498718
-0.016489173
-0.01647962
-0.016470059
-0.016460492
-0.016450916
-0.016441333
-0.016431743
-0.016422145
-0.01641254
-0.016402927
-0.016393307
-0.016383679
-0.016374043
-0.0163644
-0.016354749
-0.016345091
-0.016335425
-0.016325752
-0.016316071
-0.016306383
-0.016296686
-0.016286983
-0.016277271
-0.016267552
-0.016257826
-0.016248092
-0.01623835
-0.016228601
-0.016218843
-0.016209079
-0.016199306
-0.016189526
-0.016179739
-0.016169943
-0.01616014
-0.016150329
-0.016140511
-0.016130685
-0.016120851
-0.016111009
-0.01610116
-0.016091303
-0.016081438
-0.016071566
-0.016061686
-0.016051798
-0.016041902
-0.016031999
-0.016022088
-0.016012169
-0.016002242
-0.015992307
-0.015982365
-0.015972415
-0.015962457
-0.015952491
-0.015942518
-0.015932537
-0.015922547
-0.01591255
-0.015902546
-0.015892533
-0.015882512
-0.015872484
-0.015862448
-0.015852404
-0.015842352
-0.015832292
-0.015822224
-0.015812149
-0.015802065
-0.015791974
-0.015781874
-0.015771767
-0.015761652
-0.015751529
-0.015741398
-0.015731259
-0.015721112
-0.015710957
-0.015700794
-0.015690623
-0.015680444
-0.015670258
-0.015660063
-0.01564986
-0.015639649
-0.015629431
-0.015619204
-0.015608969
-0.015598726
-0.015588476
-0.015578217
-0.01556795
-0.015557675
-0.015547392
-0.015537101
-0.015526802
-0.015516494
-0.015506179
-0.015495856
-0.015485524
-0.015475185
-0.015464837
-0.015454481
-0.015444117
-0.015433745
-0.015423365
-0.015412977
-0.015402581
-0.015392176
-0.015381763
-0.015371342
-0.015360913
-0.015350476
-0.015340031
-0.015329577
-0.015319115
-0.015308645
-0.015298167
-0.015287681
-0.015277186
-0.015266683
-0.015256172
-0.015245653
-0.015235125
-0.015224589
-0.015214045
-0.015203493
-0.015192932
-0.015182363
-0.015171786
-0.015161201
-0.015150607
-0.015140005
-0.015129395
-0.015118776
-0.015108149
-0.015097513
-0.01508687
-0.015076218
-0.015065557
-0.015054889
-0.015044211
-0.015033526
-0.015022832
-0.01501213
-0.015001419
-0.0149907
-0.014979973
-0.014969237
-0.014958493
-0.01494774
-0.014936979
-0.014926209
-0.014915431
-0.014904645
-0.01489385
-0.014883047
-0.014872235
-0.014861415
-0.014850586
-0.014839749
-0.014828903
-0.014818049
-0.014807186
-0.014796315
-0.014785435
-0.014774546
-0.01476365
-0.014752744
-0.01474183
-0.014730908
-0.014719977
-0.014709037
-0.014698089
-0.014687132
-0.014676167
-0.014665193
-0.01465421
-0.014643219
-0.014632219
-0.014621211
-0.014610194
-0.014599168
-0.014588134
-0.014577091
-0.014566039
-0.014554979
-0.01454391
-0.014532832
-0.014521746
-0.014510651
-0.014499547
-0.014488435
-0.014477313
-0.014466184
-0.014455045
-0.014443898
-0.014432742
-0.014421577
-0.014410403
-0.014399221
-0.01438803
-0.01437683
-0.014365621
-0.014354404
-0.014343178
-0.014331943
-0.014320699
-0.014309446
-0.014298185
-0.014286915
-0.014275636
-0.014264348
-0.014253051
-0.014241745
-0.014230431
-0.014219107
-0.014207775
-0.014196434
-0.014185084
-0.014173725
-0.014162357
-0.014150981
-0.014139595
-0.0141282
-0.014116797
-0.014105384
-0.014093963
-0.014082533
-0.014071093
-0.014059645
-0.014048188
-0.014036722
-0.014025246
-0.014013762
-0.014002269
-0.013990767
-0.013979256
-0.013967735
-0.013956206
-0.013944668
-0.01393312
-0.013921564
-0.013909998
-0.013898424
-0.01388684
-0.013875248
-0.013863646
-0.013852035
-0.013840415
-0.013828786
-0.013817148
-0.0138055
-0.013793844
-0.013782178
-0.013770503
-0.01375882
-0.013747126
-0.013735424
-0.013723713
-0.013711992
-0.013700263
-0.013688524
-0.013676775
-0.013665018
-0.013653252
-0.013641476
-0.013629691
-0.013617896
-0.013606093
-0.01359428
-0.013582458
-0.013570627
-0.013558786
-0.013546936
-0.013535077
-0.013523209
-0.013511331
-0.013499444
-0.013487548
-0.013475642
-0.013463727
-0.013451803
-0.013439869
-0.013427926
-0.013415973
-0.013404012
-0.01339204
-0.01338006
-0.01336807
-0.013356071
-0.013344062
-0.013332044
-0.013320016
-0.013307979
-0.013295933
-0.013283877
-0.013271811
-0.013259737
-0.013247652
-0.013235559
-0.013223455
-0.013211343
-0.013199221
-0.013187089
-0.013174948
-0.013162797
-0.013150637
-0.013138467
-0.013126288
-0.013114099
-0.0131019
-0.013089692
-0.013077475
